X:0
T:Off to the Races
M:C|
C:© Paul Gitlitz 2009
R:reel
K:D
"D"dAFA dAFA|dAFA d3e|"A#"=f_BAB f_BAB|=f_BAB f3c|!
"D"dAFA dAFA|dAFA d3e|"D"fefg "Bm"fedB|"A7"AFED- "D"DABc:|!
|:"Bm"B2Bc "D/A"BAFA|"Bm"Bedc "D"def2|"Em"gfeg "D"fedf|"A"edef  "A/E"edcA|!
"Bm"B2Bc "D/A"BAFA|"Bm"Bcde "D"f4|"G"gdBG "F#m"fcAF|"A"efec "D"d4:|
